settings/anypreset.lrplugin/Lightroom Presets/Lightroom Video Presets/VideoCoolTone.lrtemplate
s = {
	id = "0AC26222-F7C8-4F1C-8DD1-2BC3A594CC63",
	internalName = "VideoCoolTone",
	title = ZSTR "$$$/AgDevelopModule/Templates/Video/VideoCoolTone=Video Cool Tone",
	type = "Develop",
	value = {
		settings = {
			Blacks2012 = 0,
			BlueHue = 0,
			BlueSaturation = 0,
			CameraProfile = "Adobe Standard",
			Contrast2012 = 29,
			ConvertToGrayscale = false,
			EnableCalibration = true,
			EnableColorAdjustments = true,
			EnableSplitToning = true,
			Exposure2012 = 0,
			GreenHue = 0,
			GreenSaturation = 0,
			HueAdjustmentAqua = 0,
			HueAdjustmentBlue = 0,
			HueAdjustmentGreen = 0,
			HueAdjustmentMagenta = 0,
			HueAdjustmentOrange = 0,
			HueAdjustmentPurple = 0,
			HueAdjustmentRed = 0,
			HueAdjustmentYellow = 0,
			IncrementalTemperature = -31,
			IncrementalTint = 1,
			LuminanceAdjustmentAqua = 0,
			LuminanceAdjustmentBlue = 0,
			LuminanceAdjustmentGreen = 0,
			LuminanceAdjustmentMagenta = 0,
			LuminanceAdjustmentOrange = 0,
			LuminanceAdjustmentPurple = 0,
			LuminanceAdjustmentRed = 0,
			LuminanceAdjustmentYellow = 0,
			ParametricDarks = 0,
			ParametricHighlightSplit = 75,
			ParametricHighlights = 0,
			ParametricLights = 0,
			ParametricMidtoneSplit = 50,
			ParametricShadowSplit = 25,
			ParametricShadows = 0,
			ProcessVersion = "6.7",
			RedHue = 0,
			RedSaturation = 0,
			Saturation = 0,
			SaturationAdjustmentAqua = 0,
			SaturationAdjustmentBlue = 0,
			SaturationAdjustmentGreen = 0,
			SaturationAdjustmentMagenta = 0,
			SaturationAdjustmentOrange = 0,
			SaturationAdjustmentPurple = 0,
			SaturationAdjustmentRed = 0,
			SaturationAdjustmentYellow = 0,
			ShadowTint = 0,
			SplitToningBalance = 0,
			SplitToningHighlightHue = 0,
			SplitToningHighlightSaturation = 0,
			SplitToningShadowHue = 0,
			SplitToningShadowSaturation = 0,
			ToneCurveName2012 = "Linear",
			ToneCurvePV2012 = {
				0,
				0,
				255,
				255,
			},
			ToneCurvePV2012Blue = {
				0,
				0,
				255,
				255,
			},
			ToneCurvePV2012Green = {
				0,
				0,
				255,
				255,
			},
			ToneCurvePV2012Red = {
				0,
				0,
				255,
				255,
			},
			Vibrance = -40,
			WhiteBalance = "Custom",
			Whites2012 = 0,
			orientation = "AB",
		},
		uuid = "A53171A8-1478-446F-89B0-5B21E78E38A4",
	},
	version = 0,
}
