settings/anypreset.lrplugin/Lightroom Presets/Lightroom B&W Filter Presets/RedHighContrastFilter.lrtemplate
s = {
	id = "56E7211F-B3E4-493D-B791-5DBDF65BA131",
	internalName = "RedHi-ContrastFilter",
	title = ZSTR "$$$/AgDevelopModule/Templates/BWFilter/RedHiContrastFilter=Red Hi-Contrast Filter",
	type = "Develop",
	value = {
		settings = {
			Blacks2012 = 0,
			BlueHue = 0,
			BlueSaturation = 0,
			CameraProfile = "Adobe Standard",
			Clarity2012 = 0,
			ColorNoiseReduction = 25,
			ColorNoiseReductionDetail = 50,
			Contrast2012 = 0,
			ConvertToGrayscale = true,
			EnableCalibration = true,
			EnableDetail = true,
			EnableEffects = true,
			EnableGrayscaleMix = true,
			EnableSplitToning = true,
			Exposure2012 = 0,
			GrainAmount = 0,
			GrainFrequency = 50,
			GrainSize = 25,
			GrayMixerAqua = 25,
			GrayMixerBlue = 0,
			GrayMixerGreen = -5,
			GrayMixerMagenta = -40,
			GrayMixerOrange = 38,
			GrayMixerPurple = -30,
			GrayMixerRed = 50,
			GrayMixerYellow = 36,
			GreenHue = 0,
			GreenSaturation = 0,
			Highlights2012 = 0,
			LuminanceNoiseReductionContrast = 0,
			LuminanceNoiseReductionDetail = 50,
			LuminanceSmoothing = 0,
			ParametricDarks = 18,
			ParametricHighlightSplit = 75,
			ParametricHighlights = 50,
			ParametricLights = 40,
			ParametricMidtoneSplit = 50,
			ParametricShadowSplit = 25,
			ParametricShadows = 0,
			PostCropVignetteAmount = 0,
			PostCropVignetteFeather = 50,
			PostCropVignetteHighlightContrast = 0,
			PostCropVignetteMidpoint = 50,
			PostCropVignetteRoundness = 0,
			PostCropVignetteStyle = 1,
			ProcessVersion = "6.7",
			RedHue = 0,
			RedSaturation = 0,
			ShadowTint = 0,
			Shadows2012 = 0,
			SharpenDetail = 25,
			SharpenEdgeMasking = 0,
			SharpenRadius = 1,
			Sharpness = 25,
			SplitToningBalance = 0,
			SplitToningHighlightHue = 0,
			SplitToningHighlightSaturation = 0,
			SplitToningShadowHue = 0,
			SplitToningShadowSaturation = 0,
			ToneCurveName2012 = "Strong Contrast",
			ToneCurvePV2012 = {
				0,
				0,
				32,
				16,
				64,
				50,
				128,
				128,
				192,
				202,
				255,
				255,
			},
			ToneCurvePV2012Blue = {
				0,
				0,
				255,
				255,
			},
			ToneCurvePV2012Green = {
				0,
				0,
				255,
				255,
			},
			ToneCurvePV2012Red = {
				0,
				0,
				255,
				255,
			},
			WhiteBalance = "As Shot",
			Whites2012 = 0,
		},
		uuid = "5686EF72-1438-4A72-A735-273FC97A70FD",
	},
	version = 0,
}
