settings/anypreset.lrplugin/Lightroom Presets/Lightroom General Presets/MediumContrastCurve.lrtemplate
s = {
	id = "09928288-ACB7-40CC-B45D-204C83DE6CE5",
	internalName = "MediumContrastCurve",
	title = ZSTR "$$$/AgDevelopModule/Templates/General/MediumContrastCurve=Medium Contrast Curve",
	type = "Develop",
	value = {
		settings = {
			ParametricDarks = 0,
			ParametricHighlightSplit = 75,
			ParametricHighlights = 0,
			ParametricLights = 0,
			ParametricMidtoneSplit = 50,
			ParametricShadowSplit = 25,
			ParametricShadows = 0,
			ProcessVersion = "6.7",
			ToneCurveName2012 = "Medium Contrast",
			ToneCurvePV2012 = {
				0,
				0,
				32,
				22,
				64,
				56,
				128,
				128,
				192,
				196,
				255,
				255,
			},
			ToneCurvePV2012Blue = {
				0,
				0,
				255,
				255,
			},
			ToneCurvePV2012Green = {
				0,
				0,
				255,
				255,
			},
			ToneCurvePV2012Red = {
				0,
				0,
				255,
				255,
			},
		},
		uuid = "CA5F40F6-232A-4F2E-A143-2A5AED268308",
	},
	version = 0,
}
