settings/anypreset.lrplugin/Lightroom Presets/Lightroom B&W Toned Presets/Cyanotype.lrtemplate
s = {
	id = "70B69624-4DB3-4F36-9241-FA0F00392EAE",
	internalName = "Cyanotype",
	title = ZSTR "$$$/AgDevelopModule/Templates/BwToned/Cyanotype=Cyanotype",
	type = "Develop",
	value = {
		settings = {
			Blacks2012 = 0,
			BlueHue = 0,
			BlueSaturation = 0,
			CameraProfile = "Adobe Standard",
			Clarity2012 = 0,
			ColorNoiseReduction = 25,
			ColorNoiseReductionDetail = 50,
			Contrast2012 = 30,
			ConvertToGrayscale = true,
			EnableCalibration = true,
			EnableDetail = true,
			EnableEffects = true,
			EnableGrayscaleMix = true,
			EnableSplitToning = true,
			Exposure2012 = 0,
			GrainAmount = 0,
			GrainFrequency = 50,
			GrainSize = 25,
			GrayMixerAqua = 0,
			GrayMixerBlue = 19,
			GrayMixerGreen = -9,
			GrayMixerMagenta = 30,
			GrayMixerOrange = 20,
			GrayMixerPurple = 25,
			GrayMixerRed = 34,
			GrayMixerYellow = 9,
			GreenHue = 0,
			GreenSaturation = 0,
			Highlights2012 = -20,
			LuminanceNoiseReductionContrast = 0,
			LuminanceNoiseReductionDetail = 50,
			LuminanceSmoothing = 0,
			ParametricDarks = 0,
			ParametricHighlightSplit = 75,
			ParametricHighlights = 0,
			ParametricLights = 0,
			ParametricMidtoneSplit = 50,
			ParametricShadowSplit = 25,
			ParametricShadows = 0,
			PostCropVignetteAmount = 0,
			PostCropVignetteFeather = 50,
			PostCropVignetteHighlightContrast = 0,
			PostCropVignetteMidpoint = 50,
			PostCropVignetteRoundness = 0,
			PostCropVignetteStyle = 1,
			ProcessVersion = "6.7",
			RedHue = 0,
			RedSaturation = 0,
			ShadowTint = 0,
			Shadows2012 = 0,
			SharpenDetail = 25,
			SharpenEdgeMasking = 0,
			SharpenRadius = 1,
			Sharpness = 25,
			SplitToningBalance = 0,
			SplitToningHighlightHue = 199,
			SplitToningHighlightSaturation = 40,
			SplitToningShadowHue = 216,
			SplitToningShadowSaturation = 12,
			ToneCurveName2012 = "Linear",
			ToneCurvePV2012 = {
				0,
				0,
				255,
				255,
			},
			ToneCurvePV2012Blue = {
				0,
				0,
				255,
				255,
			},
			ToneCurvePV2012Green = {
				0,
				0,
				255,
				255,
			},
			ToneCurvePV2012Red = {
				0,
				0,
				255,
				255,
			},
			WhiteBalance = "As Shot",
			Whites2012 = 0,
		},
		uuid = "34E21DEB-4CB9-4DD5-8500-E86B02E6795B",
	},
	version = 0,
}
